X: 16458
T: Hag With The Money, The
R: jig
M: 6/8
K: Dmixolydian
|:Adc ABA|AGE GFG|Aed cAB|AGE EFG|
Adc ABA|AGE GFG|Aed cAG|EDD D3:|
|:ABc d2A|Bcd e2d|cAA fed|cAG EFG|
ABc d2A|Bcd e2f|gef efg|aef edc:|

